X: 43085
T: Wind The Bobbins Up
R: waltz
M: 3/4
K: Dmajor
a2 a>f d>f|a2 a>f d>f|g2 g>e c>e|(3ded f>d A2|
a2 a>f (3def|a>b a>f d2|g>a g>e c>A|d2 d2:|
A2 B2 c2|d2 (3efe f2|g2 g>e c>e|f2 f>d A>d|
(3ABA B>G c>A|d>A e>A f>A|(3gag e>c A>c|d2 D2:|

